X:1
T:Norralapolskan
N:ven kallad Karbasen
R:Polska
Z:Hkan Lidn, 2008-09-26
O:Nianfors, Hlsingland
S:Efter Martin Larsson
Q:1/4=96
M:3/4
L:1/8
K:D
A | dd/A/ FD E2 | D>F Ad fa | bb/f/ aa/f/ ge | d/c/d/f/ e/d/c/B/ AB/c/ |
dd/A/ FD E2 | D>F Ad fa | bb/f/ aa/f/ ge | A/c/e/c/ d3 :: g |
fd A/d/f/d/ A/d/f/d/ | ec A/c/e/c/ A/c/e/c/ | BB G/B/d/B/ G/B/d/B/ |
AB/A/ FD E2 | D>F Ad fa | bb/f/ aa/f/ ge | A/c/e/c/ d3 :|]
